asset/images/icons/icon-24/emergency-2.svg

<svg width="24" height="24" viewBox="0 0 24 24" fill="none" xmlns="http://www.w3.org/2000/svg">
<path d="M20.4578 4.59133L19.9191 5.11315L19.9194 5.11341L20.4578 4.59133ZM16.7359 3V3.75V3ZM13.0139 4.59133L13.5525 5.11328L13.5527 5.11315L13.0139 4.59133ZM11.9997 5.63785L12.5218 6.17635L12.5383 6.1598L11.9997 5.63785ZM10.9855 4.59133L10.447 5.11328V5.11328L10.9855 4.59133ZM3.54168 12.2724L3.00309 12.7944H3.00309L3.54168 12.2724ZM4.55588 13.3189L5.09446 12.797H5.09446L4.55588 13.3189ZM11.9997 21L11.4612 21.5219H12.5383L11.9997 21ZM20.4578 12.2724L19.9194 11.7503L19.9192 11.7505L20.4578 12.2724ZM7.5 10L6.97797 9.4615L6.96967 10.5303L7.5 10ZM11 13.5L10.4697 14.0303L11.5394 14.0211L11 13.5ZM15.3029 9.04526L15.8416 8.52338L14.7635 8.5242L15.3029 9.04526ZM20.9965 4.06951C20.4393 3.49427 19.7764 3.03664 19.0451 2.72397L18.4554 4.1032C19.0014 4.33661 19.4989 4.6794 19.9191 5.11315L20.9965 4.06951ZM19.0451 2.72397C18.3138 2.41127 17.529 2.25 16.7359 2.25V3.75C17.3253 3.75 17.9095 3.8698 18.4554 4.1032L19.0451 2.72397ZM16.7359 2.25C15.9428 2.25 15.158 2.41127 14.4266 2.72397L15.0163 4.1032C15.5622 3.8698 16.1465 3.75 16.7359 3.75V2.25ZM14.4266 2.72397C13.6953 3.03664 13.0325 3.49427 12.4752 4.06951L13.5527 5.11315C13.9728 4.6794 14.4704 4.33661 15.0163 4.1032L14.4266 2.72397ZM12.4754 4.06938L11.4612 5.1159L12.5383 6.1598L13.5525 5.11328L12.4754 4.06938ZM12.5383 5.1159L11.5241 4.06938L10.447 5.11328L11.4612 6.1598L12.5383 5.1159ZM11.5241 4.06938C10.3983 2.90768 8.86624 2.25053 7.26361 2.25053V3.75053C8.45297 3.75053 9.59855 4.23783 10.447 5.11328L11.5241 4.06938ZM7.26361 2.25053C5.66097 2.25053 4.12892 2.90768 3.00309 4.06938L4.08026 5.11328C4.92867 4.23783 6.07425 3.75053 7.26361 3.75053V2.25053ZM3.00309 4.06938C1.87804 5.23029 1.25 6.79993 1.25 8.43187H2.75C2.75 7.18284 3.23107 5.98952 4.08026 5.11328L3.00309 4.06938ZM1.25 8.43187C1.25 10.0638 1.87804 11.6335 3.00309 12.7944L4.08026 11.7505C3.23107 10.8742 2.75 9.68089 2.75 8.43187H1.25ZM3.00309 12.7944L4.0173 13.8409L5.09446 12.797L4.08026 11.7505L3.00309 12.7944ZM4.0173 13.8409L11.4612 21.5219L12.5383 20.4781L5.09446 12.797L4.0173 13.8409ZM12.5383 21.5219L19.9822 13.8409L18.905 12.797L11.4612 20.4781L12.5383 21.5219ZM19.9822 13.8409L20.9964 12.7944L19.9192 11.7505L18.905 12.797L19.9822 13.8409ZM20.9963 12.7945C21.5537 12.2196 21.9947 11.5382 22.2952 10.7899L20.9032 10.231C20.6744 10.8007 20.3398 11.3167 19.9194 11.7503L20.9963 12.7945ZM22.2952 10.7899C22.5956 10.0417 22.75 9.24048 22.75 8.43187H21.25C21.25 9.04986 21.132 9.66127 20.9032 10.231L22.2952 10.7899ZM22.75 8.43187C22.75 7.62325 22.5956 6.82204 22.2952 6.07381L20.9032 6.63276C21.132 7.20247 21.25 7.81388 21.25 8.43187H22.75ZM22.2952 6.07381C21.9947 5.32554 21.5537 4.64418 20.9963 4.06926L19.9194 5.11341C20.3398 5.547 20.6744 6.06309 20.9032 6.63276L22.2952 6.07381ZM11.4777 5.09935L6.97797 9.4615L8.02203 10.5385L12.5218 6.17635L11.4777 5.09935ZM11.5394 14.0211L15.8424 9.56632L14.7635 8.5242L10.4606 12.9789L11.5394 14.0211ZM14.7643 9.56714L18.905 13.8408L19.9823 12.797L15.8416 8.52338L14.7643 9.56714ZM6.96967 10.5303L10.4697 14.0303L11.5303 12.9697L8.03033 9.46967L6.96967 10.5303Z" fill="white"/>
</svg>

<svg id="Слой_1" data-name="Слой 1" xmlns="http://www.w3.org/2000/svg" viewBox="0 0 24 24"><defs><style>.cls-1{fill:#fff;}</style></defs><title>emergency-2</title><path class="cls-1" d="M20.46,4.59l-0.54.52h0ZM16.74,3V3ZM13,4.59l0.54,0.52h0Zm-1,1,0.52,0.54,0,0Zm-1-1-0.54.52h0ZM3.54,12.27L3,12.79H3Zm1,1,0.54-.52h0ZM12,21l-0.54.52h1.08Zm8.46-8.73-0.54-.52h0ZM7.5,10L7,9.46v1.07ZM11,13.5L10.47,14h1.07ZM15.3,9l0.54-.52H14.76Zm5.69-5a6,6,0,0,0-2-1.35L18.46,4.1a4.5,4.5,0,0,1,1.46,1ZM19,2.72a5.87,5.87,0,0,0-2.31-.47v1.5a4.37,4.37,0,0,1,1.72.35Zm-2.31-.47a5.87,5.87,0,0,0-2.31.47L15,4.1a4.37,4.37,0,0,1,1.72-.35V2.25Zm-2.31.47a6,6,0,0,0-2,1.35l1.08,1A4.5,4.5,0,0,1,15,4.1Zm-2,1.35-1,1,1.08,1,1-1Zm0.06,1-1-1-1.08,1,1,1Zm-1-1A5.93,5.93,0,0,0,7.26,2.25v1.5a4.43,4.43,0,0,1,3.18,1.36ZM7.26,2.25A5.93,5.93,0,0,0,3,4.07l1.08,1A4.43,4.43,0,0,1,7.26,3.75V2.25ZM3,4.07A6.27,6.27,0,0,0,1.25,8.43h1.5A4.77,4.77,0,0,1,4.08,5.11ZM1.25,8.43A6.27,6.27,0,0,0,3,12.79l1.08-1A4.77,4.77,0,0,1,2.75,8.43H1.25ZM3,12.79l1,1,1.08-1-1-1Zm1,1,7.44,7.68,1.08-1L5.09,12.8Zm8.52,7.68L20,13.84l-1.08-1-7.44,7.68ZM20,13.84l1-1-1.08-1-1,1Zm1-1a6.2,6.2,0,0,0,1.3-2l-1.39-.56a4.69,4.69,0,0,1-1,1.52Zm1.3-2a6.33,6.33,0,0,0,.45-2.36h-1.5a4.83,4.83,0,0,1-.35,1.8Zm0.45-2.36a6.33,6.33,0,0,0-.45-2.36l-1.39.56a4.83,4.83,0,0,1,.35,1.8h1.5ZM22.3,6.07a6.2,6.2,0,0,0-1.3-2l-1.08,1a4.7,4.7,0,0,1,1,1.52Zm-10.82-1L7,9.46l1,1.08,4.5-4.36ZM11.54,14l4.3-4.45-1.08-1L10.46,13Zm3.22-4.45,4.14,4.27,1.08-1L15.84,8.52ZM7,10.53l3.5,3.5L11.53,13,8,9.47Z"/></svg>
